svgs/light/transporter-3.svg

<svg xmlns="http://www.w3.org/2000/svg" viewBox="0 0 512 512"><!--! Font Awesome Pro 6.0.0-alpha3 by @fontawesome - https://fontawesome.com License - https://fontawesome.com/license (Commercial License) --><path d="M144 224h224C376.8 224 384 216.8 384 208S376.8 192 368 192h-224C135.2 192 128 199.2 128 208S135.2 224 144 224zM176 160h160C344.8 160 352 152.8 352 144S344.8 128 336 128h-160C167.2 128 160 135.2 160 144S167.2 160 176 160zM80 128H64V112C64 103.2 56.84 96 48 96S32 103.2 32 112V128H16C7.156 128 0 135.2 0 144S7.156 160 16 160H32v16C32 184.8 39.16 192 48 192S64 184.8 64 176V160h16C88.84 160 96 152.8 96 144S88.84 128 80 128zM216 95.11c8.344-2.922 12.75-12.05 9.812-20.39C224.6 71.27 224 67.66 224 64c0-17.64 14.34-32 32-32s32 14.36 32 32c0 3.656-.625 7.266-1.812 10.72C283.3 83.06 287.7 92.19 296 95.11C297.8 95.72 299.5 96 301.3 96c6.594 0 12.78-4.125 15.09-10.72C318.8 78.42 320 71.27 320 64c0-35.3-28.72-64-64-64S192 28.7 192 64c0 7.266 1.219 14.42 3.625 21.28C198.6 93.63 207.7 98.06 216 95.11zM400 256h-288C103.2 256 96 263.2 96 272S103.2 288 112 288h288C408.8 288 416 280.8 416 272S408.8 256 400 256zM368 448h-224C117.5 448 96 469.5 96 496C96 504.8 103.2 512 112 512S128 504.8 128 496C128 487.2 135.2 480 144 480h224c8.828 0 16 7.172 16 16c0 8.844 7.156 16 16 16s16-7.156 16-16C416 469.5 394.5 448 368 448zM176 352h160c8.844 0 16-7.156 16-16S344.8 320 336 320h-160C167.2 320 160 327.2 160 336S167.2 352 176 352zM496 32H480V16C480 7.156 472.8 0 464 0S448 7.156 448 16V32h-16C423.2 32 416 39.16 416 48S423.2 64 432 64H448v16C448 88.84 455.2 96 464 96S480 88.84 480 80V64h16C504.8 64 512 56.84 512 48S504.8 32 496 32zM176 416h160c8.844 0 16-7.156 16-16S344.8 384 336 384h-160C167.2 384 160 391.2 160 400S167.2 416 176 416z"/></svg>

<svg xmlns="http://www.w3.org/2000/svg" viewBox="0 0 512 512"><!--! Font Awesome Pro 6.4.2 by @fontawesome - https://fontawesome.com License - https://fontawesome.com/license (Commercial License) Copyright 2023 Fonticons, Inc. --><path d="M480 16c0-8.8-7.2-16-16-16s-16 7.2-16 16V32H432c-8.8 0-16 7.2-16 16s7.2 16 16 16h16V80c0 8.8 7.2 16 16 16s16-7.2 16-16V64h16c8.8 0 16-7.2 16-16s-7.2-16-16-16H480V16zM64 112c0-8.8-7.2-16-16-16s-16 7.2-16 16v16H16c-8.8 0-16 7.2-16 16s7.2 16 16 16H32v16c0 8.8 7.2 16 16 16s16-7.2 16-16V160H80c8.8 0 16-7.2 16-16s-7.2-16-16-16H64V112zM256 32a24 24 0 1 1 0 48 24 24 0 1 1 0-48zm0 80A56 56 0 1 0 256 0a56 56 0 1 0 0 112zM144 448c-26.5 0-48 21.5-48 48c0 8.8 7.2 16 16 16s16-7.2 16-16s7.2-16 16-16H368c8.8 0 16 7.2 16 16s7.2 16 16 16s16-7.2 16-16c0-26.5-21.5-48-48-48H144zm16-304c0 8.8 7.2 16 16 16H336c8.8 0 16-7.2 16-16s-7.2-16-16-16H176c-8.8 0-16 7.2-16 16zm-32 64c0 8.8 7.2 16 16 16H368c8.8 0 16-7.2 16-16s-7.2-16-16-16H144c-8.8 0-16 7.2-16 16zM96 272c0 8.8 7.2 16 16 16H400c8.8 0 16-7.1 16-15.9l0-.1 0-.1c0-8.8-7.2-15.9-16-15.9H112c-8.8 0-16 7.2-16 16zm64 64c0 8.8 7.2 16 16 16H336c8.8 0 16-7.2 16-16s-7.2-16-16-16H176c-8.8 0-16 7.2-16 16zm0 64c0 8.8 7.2 16 16 16H336c8.8 0 16-7.2 16-16s-7.2-16-16-16H176c-8.8 0-16 7.2-16 16z"/></svg>
